X: 11645
T: Eileen O'Brien's
R: reel
M: 4/4
K: Cmajor
c2Gc AGED|CDEG cGBd|cGGc AGEG|cAGE EDCA,|
G,A,CD ~E3G|AG^FA GABG|~c3B cAGc|cAGE DdcB:|
|:c2ec GAcd|egde cBGA|_B2dB FBdB|c_Bdc BGFG|
~c3d ec~c2|ecdB cBG^f|gedB cAGE|1 FAGF ECEG:|2 ~F3E FGAB||

